src/actions/32/view-list-text.svg

<svg xmlns="http://www.w3.org/2000/svg" viewBox="0 0 32 32">
    <path d="M4 4v1h24V4H4Zm0 3v1h13V7H4Zm0 6v1h24v-1H4zm0 3v1h15v-1H4zm0 6v1h24v-1H4zm0 3v1h19v-1H4zm20 2v1h4v-1h-4z" style="fill:currentColor;fill-opacity:1;stroke:none;color:#050505;opacity:.7"/>
</svg>

<svg xmlns="http://www.w3.org/2000/svg" viewBox="0 0 32 32">
  <defs
     id="defs3051">
    <style
       type="text/css"
       id="current-color-scheme">
      .ColorScheme-Text {
        color:#363636;
      }
      </style>
  </defs>
  <path
     style="fill:currentColor;fill-opacity:1;stroke:none" 
     d="M 4,4 4,5 28,5 28,4 4,4 Z M 4,7 4,8 17,8 17,7 4,7 Z m 0,6 0,1 24,0 0,-1 -24,0 z m 0,3 0,1 15,0 0,-1 -15,0 z m 0,6 0,1 24,0 0,-1 -24,0 z m 0,3 0,1 19,0 0,-1 -19,0 z m 20,2 0,1 4,0 0,-1 -4,0 z"
     id="rect3424" 
     class="ColorScheme-Text"
     />
</svg>
